sprite.svg

<svg width="42" height="63" viewBox="0 0 42 63" fill="none" xmlns="http://www.w3.org/2000/svg">
<path fill-rule="evenodd" clip-rule="evenodd" d="M21 0.833344C32.2758 0.833344 41.4166 9.9742 41.4166 21.25C41.4166 24.6593 40.5834 27.8717 39.1039 30.6983L21 62.0833L3.31538 31.4595C1.57498 28.4542 0.583313 24.9693 0.583313 21.25C0.583313 9.9742 9.72416 0.833344 21 0.833344ZM21 6.66668C12.9458 6.66668 6.41665 13.1959 6.41665 21.25C6.41665 23.566 6.95093 25.7882 7.96198 27.7943L8.45197 28.6893L21 50.4167L33.6366 28.5362C34.9071 26.3423 35.5833 23.8555 35.5833 21.25C35.5833 13.1959 29.0541 6.66668 21 6.66668ZM21 12.5C25.8325 12.5 29.75 16.4175 29.75 21.25C29.75 26.0825 25.8325 30 21 30C16.1675 30 12.25 26.0825 12.25 21.25C12.25 16.4175 16.1675 12.5 21 12.5ZM21 18.3333C19.3891 18.3333 18.0833 19.6392 18.0833 21.25C18.0833 22.8608 19.3891 24.1667 21 24.1667C22.6108 24.1667 23.9166 22.8608 23.9166 21.25C23.9166 19.6392 22.6108 18.3333 21 18.3333Z" fill="#C0B7E8"/>
</svg>

<?xml version="1.0" encoding="utf-8"?><svg
  xmlns="http://www.w3.org/2000/svg"
  xmlns:xlink="http://www.w3.org/1999/xlink"
>
  <symbol fill="none" viewBox="0 0 42 63" id="location">
    <path
      fill-rule="evenodd"
      clip-rule="evenodd"
      d="M21 .833c11.276 0 20.417 9.141 20.417 20.417 0 3.41-.834 6.622-2.313 9.448L21 62.083 3.315 31.46A20.3 20.3 0 0 1 .583 21.25C.583 9.974 9.724.833 21 .833zm0 5.834c-8.054 0-14.583 6.529-14.583 14.583 0 2.316.534 4.538 1.545 6.544l.49.895L21 50.417l12.637-21.88a14.465 14.465 0 0 0 1.946-7.287c0-8.054-6.529-14.583-14.583-14.583zm0 5.833A8.75 8.75 0 1 1 21 30a8.75 8.75 0 0 1 0-17.5zm0 5.833a2.917 2.917 0 1 0 0 5.834 2.917 2.917 0 0 0 0-5.834z"
      fill="#C0B7E8"
    />
  </symbol>
  <symbol fill="none" viewBox="0 0 102 103" id="logo">
    <path
      d="M100.772 41.258c1.336 7.718-6.86 5.662-6.86 5.662-3.43-9.665-8.918-8.764-8.918-8.764 4.297 3.138 4.622 5.807 4.622 5.807-11.446-8.115-27.008-1.587-32.93 1.478-3.321-4.688-10.037-15.183-7.654-19.943 3.142-6.24 9.532-2.67 9.532-2.67 12.926-.215 12.204-4.832 12.204-4.832-3.43 2.669-13.54 0-13.54 0 8.774 0 12.493-3.57 12.493-3.57-6.535 1.623-13.829-5.338-13.829-5.338-2.671-13.668-15.02-7.862-15.02-7.862C48.6-.108 46.541 8.08 46.541 8.08c-9.676 3.426-8.774 8.907-8.774 8.907 3.141-4.291 5.813-4.616 5.813-4.616-8.846 12.442-.325 29.753 2.203 34.261-4.622 3.21-15.454 10.279-20.328 7.826-6.246-3.137-2.672-9.52-2.672-9.52-.144-12.912-4.766-12.19-4.766-12.19 2.672 3.426 0 13.524 0 13.524 0-8.764-3.574-12.479-3.574-12.479 1.624 6.528-5.344 13.813-5.344 13.813-13.684 2.669-7.871 15.003-7.871 15.003-1.336-7.718 6.86-5.662 6.86-5.662 3.43 9.665 8.918 8.764 8.918 8.764-4.296-3.138-4.622-5.807-4.622-5.807 12.096 8.583 28.813.794 33.868-1.947 3.394 4.868 9.713 14.894 7.366 19.546-3.141 6.24-9.532 2.67-9.532 2.67-12.926.144-12.204 4.76-12.204 4.76 3.43-2.669 13.54 0 13.54 0-8.774 0-12.493 3.57-12.493 3.57 6.535-1.623 13.829 5.338 13.829 5.338 2.671 13.668 15.02 7.862 15.02 7.862-7.727 1.334-5.669-6.852-5.669-6.852 9.677-3.427 8.774-8.908 8.774-8.908-3.141 4.291-5.813 4.616-5.813 4.616 8.665-12.154.686-28.996-2.022-33.937 4.91-3.426 14.84-9.557 19.425-7.249 6.246 3.138 2.672 9.521 2.672 9.521.144 12.911 4.766 12.19 4.766 12.19-2.672-3.426 0-13.524 0-13.524 0 8.764 3.574 12.478 3.574 12.478-1.624-6.528 5.344-13.813 5.344-13.813 13.757-2.632 7.943-14.966 7.943-14.966z"
      fill="url(#ca)"
    />
  </symbol>
  <defs>
    <linearGradient id="ca" x1="50.997" y1=".001" x2="50.997" y2="102.927" gradientUnits="userSpaceOnUse">
      <stop stop-color="#C0B7E8" />
      <stop offset="1" stop-color="#8176AF" />
    </linearGradient>
  </defs>
  <symbol fill="none" viewBox="0 0 76 46" id="logo-title">
    <path d="M0 0h2.32v27.405h6.93V0h2.322v46H9.25V29.713H2.32V46H0V0z" fill="url(#ba)" />
    <path d="M28.733 0 22.98 29.713V46h-2.321V29.713L14.873 0h2.125l4.838 24.772L26.64 0h2.092z" fill="url(#bb)" />
    <path
      d="M38.997 46h-6.963V0h6.93c2.583 0 4.61 2.048 4.61 4.584v36.8C43.605 43.887 41.546 46 38.996 46zM34.355 2.308v41.384h4.61c1.241 0 2.32-1.04 2.32-2.308v-36.8c0-1.236-1.046-2.308-2.32-2.308h-4.61v.032z"
      fill="url(#bc)"
    />
    <path
      d="M58.806 46H56.42l-4.086-16.287h-2.779V46h-2.32V0h6.93a4.57 4.57 0 0 1 4.608 4.584v20.513c0 2.308-1.798 4.258-4.086 4.518L58.806 46zm-9.25-18.595h4.608c1.242 0 2.321-1.04 2.321-2.308V4.584c0-1.236-1.046-2.308-2.32-2.308h-4.61v25.129z"
      fill="url(#bd)"
    />
    <path
      d="M65.801 29.713 64.2 46h-2.093L66.75 0h4.61l4.608 46h-2.092l-1.602-16.287h-6.472zm3.694-27.405h-.915l-2.517 25.097h5.949L69.495 2.308z"
      fill="url(#be)"
    />
    <defs>
      <linearGradient id="ba" x1="5.786" y1="0" x2="5.786" y2="46" gradientUnits="userSpaceOnUse">
        <stop stop-color="#C0B7E8" />
        <stop offset="1" stop-color="#8176AF" />
      </linearGradient>
      <linearGradient id="bb" x1="21.803" y1="0" x2="21.803" y2="46" gradientUnits="userSpaceOnUse">
        <stop stop-color="#C0B7E8" />
        <stop offset="1" stop-color="#8176AF" />
      </linearGradient>
      <linearGradient id="bc" x1="37.804" y1="0" x2="37.804" y2="46" gradientUnits="userSpaceOnUse">
        <stop stop-color="#C0B7E8" />
        <stop offset="1" stop-color="#8176AF" />
      </linearGradient>
      <linearGradient id="bd" x1="53.02" y1="0" x2="53.02" y2="46" gradientUnits="userSpaceOnUse">
        <stop stop-color="#C0B7E8" />
        <stop offset="1" stop-color="#8176AF" />
      </linearGradient>
      <linearGradient id="be" x1="69.037" y1="0" x2="69.037" y2="46" gradientUnits="userSpaceOnUse">
        <stop stop-color="#C0B7E8" />
        <stop offset="1" stop-color="#8176AF" />
      </linearGradient>
    </defs>
  </symbol>
</svg>
